X:128
T:Apples in Winter
R:jig
N:Last 4 bars also |efe edB|def gba|gfe dBA|BGE E3||
Z:id:hn-jig-128
M:6/8
K:Edor
BEE dEE|BAG FGE|DED FDF|ABc ded|BEE BAB|def g2e|fdB AGF|1 GEE E2A:|2 GEE E2B||
efe edB|g2e fdB|ded dAF|DFA def|1 efe edB|def g2a|bgb agf|
gee e2d:|2 edB def|gba gfe|fdB AGF|GEE E2A||
